src/cmd/lc_insertobjectdialog.svg

<svg viewBox="0 0 24 24" xmlns="http://www.w3.org/2000/svg"><path d="m11 20c-.552285 0-1 .4477-1 1s.447715 1 1 1 1-.4477 1-1-.447715-1-1-1zm4 0c-.552285 0-1 .4477-1 1s.447715 1 1 1 1-.4477 1-1-.447715-1-1-1zm4 0c-.552285 0-1 .4477-1 1s.447715 1 1 1 1-.4477 1-1-.447715-1-1-1z" fill="#e95420"/><path d="m5 3.9980469v6 1.0000001 5 1 1h-1v1h1v1h1v-1h14v-1h-2v-8.998047h-4v8.998047h-1-1v-13.998047h-4v13.998047h-1-1v-1-1-3-1-1-1.0000001-3-.0097657-.9921874-1.9980469z" fill="#232629"/></svg>

<?xml version="1.0" encoding="UTF-8" standalone="no"?>
<svg
   xmlns:dc="http://purl.org/dc/elements/1.1/"
   xmlns:cc="http://creativecommons.org/ns#"
   xmlns:rdf="http://www.w3.org/1999/02/22-rdf-syntax-ns#"
   xmlns:svg="http://www.w3.org/2000/svg"
   xmlns="http://www.w3.org/2000/svg"
   xmlns:sodipodi="http://sodipodi.sourceforge.net/DTD/sodipodi-0.dtd"
   xmlns:inkscape="http://www.inkscape.org/namespaces/inkscape"
   viewBox="0 0 24 24"
   version="1.1"
   id="svg6"
   sodipodi:docname="lc_insertobjectdialog.svg"
   inkscape:version="0.92.4 (5da689c313, 2019-01-14)">
  <metadata
     id="metadata12">
    <rdf:RDF>
      <cc:Work
         rdf:about="">
        <dc:format>image/svg+xml</dc:format>
        <dc:type
           rdf:resource="http://purl.org/dc/dcmitype/StillImage" />
      </cc:Work>
    </rdf:RDF>
  </metadata>
  <defs
     id="defs10" />
  <sodipodi:namedview
     pagecolor="#ffffff"
     bordercolor="#666666"
     borderopacity="1"
     objecttolerance="10"
     gridtolerance="10"
     guidetolerance="10"
     inkscape:pageopacity="0"
     inkscape:pageshadow="2"
     inkscape:window-width="1920"
     inkscape:window-height="1011"
     id="namedview8"
     showgrid="false"
     inkscape:zoom="9.8333333"
     inkscape:cx="-11.847458"
     inkscape:cy="12"
     inkscape:window-x="0"
     inkscape:window-y="32"
     inkscape:window-maximized="1"
     inkscape:current-layer="svg6" />
  <path
     d="m 5,4 v 6 1 5 1 1 H 4 v 1 h 1 v 1 H 6 V 19 H 20 V 18 H 18 V 9.0019531 H 14 V 18 H 13 12 V 4.0019531 H 8 V 18 H 7 6 V 17 16 13 12 11 10 7 6.9902343 5.9980469 4 Z"
     id="path4"
     inkscape:connector-curvature="0"
     style="fill:#232629" />
</svg>
